!!!OTL: Die erzwungene Ehe.
!!!OTL-incipit: Filii hominum, scitote,
!!!ARE: Europa, Mitteleuropa
!!!YOR: 2, S. 250
!!    0500 Handschrift (vor d. 6. Jh.)
!!!SCT: Q3050A
!!!TXL: @@LAT
!!!YEM: Copyright 1995, estate of Helmut Schaffrath.
**kern	**text
*ICvox	*
!! Irregular meter.
*MX	*
*k[b-]	*
*d:	*
{8f	Fi-
8dL	-li-
8fJ	.
8f	-i
8f	ho-
8fL	-mi-
8eJ	.
=1:	=1:
8dL	-num,
8cJ	.
8f	sci-
=2:	=2:
8fL	-to-
8a	.
8g	.
8aJ	.
=3:	=3:
(8aL	-te,
8b-XJ	.
4a)}	.
{8f	qui-
8g	-a
=4:	=4:
8a	Do-
8g	-mi-
8f	-nus
8g	sanctum
8f	.
=5:	=5:
8fL	su-
8eJ	.
4c	-um
=6:	=6:
8e	mi-
8gL	-ri-
8eJ	.
8fL	-fi-
8eJ	.
=7:	=7:
4d	-ca-
4d}	-vit._(Ps. 4)
==	==
!!!AGN: geistlich, gregorianisches Antiphon
!! Melodievergleich zu Q0050, anderes Lied.
!!!ONB: ESAC (Essen Associative Code) Database: BALLADE
!!!AMT: irregular
!!!AIN: vox
!!!EED: Helmut Schaffrath
!!!EEV: 1.0
!!!source: Deutsche Volkslieder mit ihren Melodien. Herausgegeben vom Deutschen Volksliedarchiv. Zweiter Band Balladen. Berlin 1939.
!!!page: 250
!!!ENC: Anna Maria Matuszewska
!!!EEV: 2025/02/17
*-	*-
